images/continents/europe/leagues/bundesliga/clubs/schalke-04.svg

<svg xmlns="http://www.w3.org/2000/svg" xmlns:xlink="http://www.w3.org/1999/xlink" width="1080" zoomAndPan="magnify" viewBox="0 0 810 809.999993" height="1080" preserveAspectRatio="xMidYMid meet" version="1.0"><path fill="#ffffff" d="M 405.125 810.761719 C 629.148438 810.761719 810.761719 629.148438 810.761719 405.125 C 810.761719 181.101562 629.148438 -0.511719 405.125 -0.511719 C 181.101562 -0.511719 -0.511719 181.101562 -0.511719 405.125 C -0.511719 629.148438 181.101562 810.761719 405.125 810.761719 Z M 405.125 810.761719 " fill-opacity="1" fill-rule="nonzero"/><path fill="#004b9c" d="M 405.125 795.835938 C 189.339844 795.835938 14.410156 620.910156 14.410156 405.125 C 14.410156 189.339844 189.339844 14.410156 405.125 14.410156 C 620.910156 14.410156 795.835938 189.339844 795.835938 405.125 C 795.835938 620.910156 620.910156 795.835938 405.125 795.835938 " fill-opacity="1" fill-rule="nonzero"/><path fill="#ffffff" d="M 498.867188 610.210938 L 479.6875 610.210938 L 479.6875 575.855469 L 449.6875 575.855469 L 449.6875 610.234375 L 429.460938 610.234375 C 429.460938 610.234375 460.703125 479.710938 461.011719 479.125 L 427.65625 479.125 C 427.65625 479.125 388.367188 643.242188 388.367188 642.277344 L 448.210938 642.277344 L 448.210938 696.027344 L 479.761719 696.027344 L 479.761719 642.277344 L 498.871094 642.277344 L 498.871094 610.203125 Z M 287.9375 520.96875 L 287.9375 654.503906 C 287.707031 670.78125 296.257812 685.917969 310.316406 694.125 C 324.371094 702.328125 341.757812 702.328125 355.816406 694.125 C 369.875 685.917969 378.425781 670.78125 378.195312 654.503906 L 378.195312 520.960938 C 377.847656 496.285156 357.746094 476.464844 333.066406 476.464844 C 308.386719 476.464844 288.285156 496.285156 287.9375 520.960938 Z M 318.648438 520.914062 C 318.515625 515.53125 321.3125 510.5 325.953125 507.769531 C 330.59375 505.039062 336.351562 505.039062 340.992188 507.769531 C 345.632812 510.5 348.429688 515.53125 348.296875 520.914062 L 348.296875 654.566406 C 348.097656 662.613281 341.519531 669.03125 333.472656 669.03125 C 325.425781 669.03125 318.847656 662.613281 318.648438 654.566406 L 318.648438 520.90625 Z M 394.476562 194.179688 C 392.671875 189.675781 387.148438 165.066406 416.453125 154.714844 C 425.628906 152.175781 433.09375 152.726562 441.84375 156.078125 C 464.308594 164.191406 468.535156 194.476562 470.175781 213.632812 L 494.867188 213.632812 L 494.867188 108.960938 L 479.667969 108.960938 C 479.667969 108.960938 472.132812 120.164062 469.996094 123.382812 C 457.378906 115.269531 442.613281 109.960938 427.820312 106.128906 C 392.761719 99.910156 359.90625 108.050781 334.160156 126.25 C 301.195312 149.6875 282.4375 203.175781 305.488281 238.730469 C 328.535156 274.28125 394.394531 370.027344 394.394531 370.027344 C 394.394531 370.027344 399 376.445312 398.902344 383.820312 C 398.703125 395.539062 393.90625 403.15625 384.585938 409.761719 C 375.265625 416.371094 365.65625 417.8125 352.820312 415.027344 C 322.355469 408.527344 324.28125 369.957031 324.28125 350.414062 L 287.9375 350.414062 L 287.9375 460.746094 L 311.195312 460.746094 L 318.585938 446.523438 C 327.691406 450.625 344.527344 459.097656 358.769531 461.496094 C 397.109375 469.15625 438.195312 462.441406 466.121094 437.535156 C 496.253906 412.621094 511.550781 364.089844 481.046875 322.714844 C 448.847656 274.039062 400.398438 208.882812 394.441406 194.136719 Z M 702.691406 285.980469 L 729.824219 285.980469 C 681.28125 153.714844 554.222656 59.339844 405.117188 59.339844 C 214.144531 59.339844 59.347656 214.15625 59.347656 405.113281 C 59.347656 596.070312 214.160156 750.882812 405.117188 750.882812 C 596.074219 750.882812 750.761719 596.210938 750.886719 405.351562 L 518.792969 405.351562 L 518.792969 534.253906 L 557.085938 534.253906 L 557.085938 610.242188 C 557.085938 636.292969 557.085938 725.625 405.097656 725.625 C 351.535156 725.710938 298.8125 712.308594 251.792969 686.648438 L 251.792969 123.691406 C 298.816406 98.035156 351.539062 84.632812 405.113281 84.714844 C 557.101562 84.714844 557.101562 174 557.101562 200.097656 L 557.101562 286.035156 L 702.679688 285.992188 Z M 702.691406 285.980469 " fill-opacity="1" fill-rule="nonzero"/></svg>

<svg xmlns="http://www.w3.org/2000/svg" width="1080" viewBox="0 0 810 810" height="1080" version="1.0"><path fill="#fff" d="M405.125 810.762c224.023 0 405.637-181.614 405.637-405.637S629.148-.512 405.125-.512-.512 181.102-.512 405.125s181.614 405.637 405.637 405.637Zm0 0"/><path fill="#004b9c" d="M405.125 795.836C189.34 795.836 14.41 620.91 14.41 405.125 14.41 189.34 189.34 14.41 405.125 14.41c215.785 0 390.71 174.93 390.71 390.715 0 215.785-174.925 390.71-390.71 390.71"/><path fill="#fff" d="M498.867 610.21h-19.18v-34.355h-30v34.38h-20.226s31.242-130.524 31.55-131.11h-33.355s-39.289 164.117-39.289 163.152h59.844v53.75h31.55v-53.75h19.11v-32.074Zm-210.93-89.241v133.535a45.136 45.136 0 0 0 22.38 39.621 45.138 45.138 0 0 0 45.5 0 45.136 45.136 0 0 0 22.378-39.621V520.96c-.347-24.676-20.449-44.496-45.129-44.496-24.68 0-44.78 19.82-45.128 44.496Zm30.711-.055a14.828 14.828 0 0 1 22.344-13.144 14.828 14.828 0 0 1 7.305 13.144v133.652c-.2 8.047-6.777 14.465-14.824 14.465s-14.625-6.418-14.825-14.465v-133.66Zm75.829-326.734c-1.805-4.504-7.329-29.114 21.976-39.465 9.176-2.54 16.64-1.988 25.39 1.363 22.466 8.113 26.692 38.399 28.333 57.555h24.691V108.96h-15.199s-7.535 11.203-9.672 14.422c-12.617-8.113-27.383-13.422-42.176-17.254-35.058-6.219-67.914 1.922-93.66 20.121-32.965 23.438-51.723 76.926-28.672 112.48 23.047 35.551 88.907 131.297 88.907 131.297s4.605 6.418 4.507 13.793c-.199 11.72-4.996 19.336-14.316 25.942-9.32 6.61-18.93 8.05-31.766 5.265-30.465-6.5-28.539-45.07-28.539-64.613h-36.344v110.332h23.258l7.39-14.223c9.106 4.102 25.942 12.575 40.185 14.973 38.34 7.66 79.425.945 107.351-23.96 30.133-24.915 45.43-73.446 14.926-114.821-32.2-48.676-80.649-113.832-86.606-128.578Zm308.214 91.8h27.133C681.281 153.715 554.223 59.34 405.117 59.34c-190.972 0-345.77 154.816-345.77 345.773 0 190.957 154.813 345.77 345.77 345.77s345.645-154.672 345.77-345.531H518.793v128.902h38.293v75.988c0 26.051 0 115.383-151.988 115.383a318.953 318.953 0 0 1-153.305-38.977V123.691a319.078 319.078 0 0 1 153.32-38.976c151.989 0 151.989 89.285 151.989 115.383v85.937l145.578-.043Zm0 0"/></svg>
